X: 1
T: FLOWERS OF ST. PETERSBURG -- REEL
B: Ryan's Mammoth Collection of Fiddle Tunes
R: reel
M: 2/4
L: 1/16
Z: Contributed 20010907021444 by John Chambers jmchambers:rcn.net
K: F
vAB \
| c2(cA) FAcf | ebgf fefd | c2(cA) FAcf | ebge f2(AB) |
| c2(cA) FAcf | ebgf fefd | c2(cA) FAcf | ebge f2 :|
|: a2 \
| ac'fa gbeg | cegf fedc | ac'fa gbeg | cege f2(cf) |
| ac'fa gbeg | cegf fcdB | AFBG  cAdB | Gbge f2 :|
